style-guide/assets/wds-icons-message-tiny.svg

<svg xmlns="http://www.w3.org/2000/svg" xmlns:xlink="http://www.w3.org/1999/xlink" viewBox="0 0 12 12">
  <defs>
    <path id="message-a" d="M10 9H2V4.414l3.293 3.293a.999.999 0 0 0 1.414 0L10 4.414V9zM8.586 3L6 5.586 3.414 3h5.172zm3.339-1.381A1.003 1.003 0 0 0 11.003 1H.997a.988.988 0 0 0-.704.293A1.003 1.003 0 0 0 0 1.997V10a1 1 0 0 0 1 1h10a1 1 0 0 0 1-1V1.997a.988.988 0 0 0-.075-.378z"/>
  </defs>
  <use fill-rule="evenodd" xlink:href="#message-a"/>
</svg>

<svg xmlns="http://www.w3.org/2000/svg" xmlns:xlink="http://www.w3.org/1999/xlink" width="12" height="12" viewBox="0 0 12 12">
  <defs>
    <path id="message-a" d="M10,9 L2,9 L2,4.414 L5.293,7.707 C5.684,8.098 6.316,8.098 6.707,7.707 L10,4.414 L10,9 Z M8.586,3 L6,5.586 L3.414,3 L8.586,3 Z M11.925,1.619 C11.876,1.501 11.804,1.39 11.707,1.293 C11.61,1.196 11.5,1.124 11.381,1.075 C11.265,1.026 11.137,1.001 11.003,1 L11,1 L1,1 L0.997,1 C0.863,1.001 0.735,1.026 0.619,1.075 C0.5,1.124 0.39,1.196 0.293,1.293 C0.196,1.39 0.124,1.501 0.075,1.619 C0.027,1.735 0,1.863 0,1.997 L0,2 L0,10 C0,10.552 0.447,11 1,11 L11,11 C11.553,11 12,10.552 12,10 L12,2 L12,1.997 C12,1.863 11.973,1.735 11.925,1.619 Z"/>
  </defs>
  <use fill-rule="evenodd" xlink:href="#message-a"/>
</svg>
